X: 117
U:~=!turn!
M:C
L:1/8
K:A minor
~G>ED>G B,>G,D>B, | A,<A, A2 E<E A2 | G>E^FD TE2 A, :: E | (C/B,/)A, EA, (C/B,/)A, EA, | (B,/A,/)G, DG, EG,DG, |
(C/B,/)A, EA, (C/B,/)A, EA, | (B,/A,/)G, DB, {/^F}TE2 A, :: B, | A,<A, A2 E<E A2 | ~G>EDG B,<G,E>B, | A,<A, A2 E<E A2 | G>E^F>D TE2 A, :|


